X:1
T:Merriweather
C:Traditional
N:From "Portland Collection"
M:C|
L:1/8
Q:1/2=110
K:G
P:Part A
|:"G"BdBA GBAG|"Am"EG A2 A4|"G"DEGA Bdef|"C"gage "D"dged
|"G"BdBA GBAG|"Am"EG A2 A4|"G"DEGA B2 d2-|"D"dB A2 "G"G4:|
P:Part B
|:"G"g2 ga gede|g2 ga ge d2|"Am"ea-ab aged|"D"egab a2 ga
|"G"b2 ba ge d2|"C"efge "G"d4|"C"efge "G"dcBG|"D"ABAF "G"G4:||
